assets/images/yt-bl.svg

<svg width="24" height="17" viewBox="0 0 24 17" fill="none" xmlns="http://www.w3.org/2000/svg">
<path d="M21.9 1.94001C20.01 0.500007 15.81 0.429688 12 0.429688C8.19002 0.429688 3.99002 0.500007 2.10002 1.94001C0.210024 3.38001 0.150024 6.50001 0.150024 8.36001C0.150024 10.22 0.210024 13.34 2.10002 14.78C3.99002 16.22 8.19002 16.2906 12 16.2906V16.2903C15.81 16.2903 20.01 16.22 21.9 14.78C23.79 13.34 23.85 10.22 23.85 8.36001C23.85 6.50001 23.79 3.38001 21.9 1.94001ZM15.7551 8.77953L15.7558 8.78049L9.31754 12.2115C9.28298 12.2365 9.2453 12.2564 9.20474 12.2718L9.19682 12.2761L9.19634 12.2744C9.14426 12.2931 9.08882 12.3051 9.03026 12.3051C8.7569 12.3051 8.53538 12.0834 8.53538 11.8102V4.89489C8.53538 4.62153 8.75714 4.40001 9.03026 4.40001C9.1073 4.40001 9.17954 4.41921 9.24458 4.45065L9.24482 4.45041L15.7558 7.94049L15.7555 7.94097C15.8959 8.02833 15.9903 8.18289 15.9903 8.36025C15.99 8.53761 15.8955 8.69217 15.7551 8.77953Z" fill="#0029FF"/>
</svg>

<svg width="24" height="17" fill="none" xmlns="http://www.w3.org/2000/svg"><path d="M21.9 1.94C20.01.5 15.81.43 12 .43 8.19.43 3.99.5 2.1 1.94.21 3.38.15 6.5.15 8.36c0 1.86.06 4.98 1.95 6.42 1.89 1.44 6.09 1.51 9.9 1.51 3.81 0 8.01-.07 9.9-1.51 1.89-1.44 1.95-4.56 1.95-6.42 0-1.86-.06-4.98-1.95-6.42zm-6.145 6.84l-6.437 3.431a.485.485 0 01-.113.06l-.008.005v-.002a.49.49 0 01-.662-.464V4.895a.495.495 0 01.71-.444l6.51 3.49a.494.494 0 010 .839z" fill="#0029FF"/></svg>
